fill/svg/car.svg

<svg xmlns="http://www.w3.org/2000/svg" viewBox="0 0 24 24"><g data-name="Layer 2"><path d="M21.6 11.22L17 7.52V5a1.91 1.91 0 0 0-1.81-2H3.79A1.91 1.91 0 0 0 2 5v10a2 2 0 0 0 1.2 1.88 3 3 0 1 0 5.6.12h6.36a3 3 0 1 0 5.64 0h.2a1 1 0 0 0 1-1v-4a1 1 0 0 0-.4-.78zM20 12.48V15h-3v-4.92zM7 18a1 1 0 1 1-1-1 1 1 0 0 1 1 1zm12 0a1 1 0 1 1-1-1 1 1 0 0 1 1 1z" data-name="car"/></g></svg>

<svg xmlns="http://www.w3.org/2000/svg" viewBox="0 0 24 24"><defs><style>.cls-1{fill:#fff;opacity:0;}.cls-2{fill:#231f20;}</style></defs><title>car</title><g id="Layer_2" data-name="Layer 2"><g id="car"><g id="car-2" data-name="car"><rect class="cls-1" width="24" height="24"/><path class="cls-2" d="M21.6,11.22,17,7.52V5a1.91,1.91,0,0,0-1.81-2H3.79A1.91,1.91,0,0,0,2,5V15A2,2,0,0,0,3.2,16.88,3,3,0,1,0,8.8,17h6.36a3,3,0,1,0,5.64,0H21a1,1,0,0,0,1-1V12A1,1,0,0,0,21.6,11.22ZM20,12.48V15H17V10.08ZM7,18a1,1,0,1,1-1-1A1,1,0,0,1,7,18Zm12,0a1,1,0,1,1-1-1A1,1,0,0,1,19,18Z"/></g></g></g></svg>
